X:1
T:Don’t Worry, Be Happy
C:1988 - Bobby McFerrin
Z:www.realbook.site
L:1/8
M:4/4
I:linebreak $
K:Eb
V:1 treble nm=" " snm=" "
V:1
|:"Eb6" !slide!e4 c2 B2 | (3:2:2c2 !slide!G4 BGFE |"Fm" FG F6- | F4 BGFE |$"Ab6" FG F6- | %5
 F4"Bb9" GFEC |"Eb6" E2 EE B,B,cc | B2 GG !slide!_GFEC ::$"Eb" z4 =GFGF | G G2 B z2 z C | %10
"Fm" F2 FE FE z G- |$ G E2 F-"Eb" FE G2 |"Ab" EE z2 z4 | z4"Bb69" z G3 |"Eb6" (3E2 E2 z2 z4 | z8 :| %16

